!!!COM:	Bach, Johann Sebastian
!!!OMV:	Oh God, how many heart pains
!!!OTL:	Oh God, how many heart pains
**kern	**fb	**kern	**kern	**kern	**kern
*part5	*part5	*part4	*part3	*part2	*part1
*staff5	*	*staff4	*staff3	*staff2	*staff1
*I"Continuo	*	*I"Voice	*I"Voice	*I"Voice	*I"Voice
*I'Cont.	*	*I'V	*I'V	*I'V	*I'V
*clefF4	*	*clefF4	*clefGv2	*clefG2	*clefG2
*Trd0c0	*	*	*	*	*
*k[f#c#]	*	*k[f#c#]	*k[f#c#]	*k[f#c#]	*k[f#c#]
*M4/4	*	*M4/4	*M4/4	*M4/4	*M4/4
=	=	=	=	=	=
8DL	.	8DL	4d	8f#L	4a
8E	.	8E	.	8eJ	.
8F#	6	8F#	8AL	4d	4a
8DJ	.	8DJ	8F#J	.	.
8GL	.	8GL	8GL	4d	4b
8F#J	.	8F#J	8BJ	.	.
4E	8	4E	8eL	8gL	4b
.	7	.	8dJ	8f#J	.
=3	=3	=3	=3	=3	=3
8AL	.	8AL	8c#L	4e	4cc#
8G	.	8G	8BJ	.	.
8F#	.	8F#	4A	8aL	4cc#
8EJ	.	8EJ	.	8gJ	.
2D;	.	2D;	2A;	2f#;	2dd;
=4	=4	=4	=4	=4	=4
8C#L	6	8C#L	8AL	4a	4ee
8D	.	8D	8BJ	.	.
8E	#	8E	4c#	8g#XL	4ee
8F#J	3	8F#J	.	8aJ	.
8G#XL	6 5	8G#XL	8BL	4b	4dd
8A	.	8A	8c#J	.	.
8B	.	8B	8dL	8f#L	4dd
8G#J	.	8G#J	8BJ	8eJ	.
=5	=5	=5	=5	=5	=5
8AL	.	8AL	4c#	4e	8cc#L
8G#X	.	8G#X	.	.	8bJ
8F#	.	8F#	4f#	4a	8cc#L
8EJ	.	8EJ	.	.	8ddJ
4D	6 5	4D	4f#	4a	2b
4E	#	4E	8eL	4g#X	.
.	.	.	8dJ	.	.
=6	=6	=6	=6	=6	=6
2AA;	.	2AA;	2c#;	2e;	2a;
8dL	.	8dL	4d	4f#	4a
8c#	.	8c#	.	.	.
8B	.	8B	4d	4f#	4a
8AJ	.	8AJ	.	.	.
=7	=7	=7	=7	=7	=7
!!linebreak:original
8GL	.	8GL	4d	4g	4b
8F#	.	8F#	.	.	.
8E	.	8E	4e	8gL	4b
8DJ	.	8DJ	.	8f#J	.
8C#L	6	8C#L	4A	8eL	4a
8BB	.	8BB	.	8d	.
8C#	5	8C#	4A	8e	4g
8AAJ	.	8AAJ	.	8c#J	.
=8	=8	=8	=8	=8	=8
2D;	.	2D;	2A;	2d;	2f#;
8F#L	.	8F#L	8AL	4c#	4a
8E	.	8E	8GJ	.	.
8D#X	6 5	8D#X	4F#	4B	4a
8BBJ	.	8BBJ	.	.	.
=9	=9	=9	=9	=9	=9
8EL	.	8EL	4G	4B	4g
8Dn	.	8Dn	.	.	.
8C#	6 5	8C#	4A	4e	4g
8AAJ	.	8AAJ	.	.	.
8DL	.	8DL	4A	4e	8f#L
8C#	.	8C#	.	.	8eJ
8BB	.	8BB	8dL	4d	8f#L
8AAJ	.	8AAJ	8c#J	.	8gJ
=10	=10	=10	=10	=10	=10
4GG	6 5	4GG	4B	4d	2e
4AA	.	4AA	8AL	4c#	.
.	.	.	8GJ	.	.
2D;	.	2D;	2F#;	2A;	2d;
=11	=11	=11	=11	=11	=11
8BBL	.	8BBL	4B	4f#	4dd
8C#	.	8C#	.	.	.
8D	.	8D	4B	4f#	4dd
8EJ	.	8EJ	.	.	.
8F#L	.	8F#L	4B	8f#L	4cc#
8G#X	#6\	8G#X	.	8e#XJ	.
8A	6	8A	4A	4f#	4cc#
8F#J	.	8F#J	.	.	.
=12	=12	=12	=12	=12	=12
!!pagebreak:original
8G#XL	7	8G#XL	8BL	8f#L	4b
8F#	.	8F#	8dJ	16e#XL	.
.	.	.	.	16f#JJ	.
8E#X	6 5	8E#X	4c#	8g#XL	4b
8C#J	.	8C#J	.	8e#J	.
2F#;	.	2F#;	2c#;	2f#;	2a;
=13	=13	=13	=13	=13	=13
8F#L	.	8F#L	4c#	4f#	4a
8En	.	8En	.	.	.
8D#X	6 5	8D#X	4B	4f#	4a
8BBJ	.	8BBJ	.	.	.
8EL	.	8EL	4B	4en	4g
8Gn	.	8Gn	.	.	.
8B	.	8B	4B	4dn	4f#
8AJ	.	8AJ	.	.	.
=14	=14	=14	=14	=14	=14
8GL	6 5	8GL	4B	4d	4.e
8E	.	8E	.	.	.
8A	.	8A	8AL	4c#	.
8AAJ	.	8AAJ	8EJ	.	8d
2D;	.	2D;	2F#;	2A;	2d;
=||	=||	=||	=||	=||	=||
*-	*-	*-	*-	*-	*-
!!!system-decoration: s1,s2,s3,s4,s5
